Numix/16/status/indicator-keyboard-Mk-1.svg

<?xml version="1.0" encoding="UTF-8" standalone="no"?>
<svg
   xmlns:dc="http://purl.org/dc/elements/1.1/"
   xmlns:cc="http://creativecommons.org/ns#"
   xmlns:rdf="http://www.w3.org/1999/02/22-rdf-syntax-ns#"
   xmlns:svg="http://www.w3.org/2000/svg"
   xmlns="http://www.w3.org/2000/svg"
   xmlns:sodipodi="http://sodipodi.sourceforge.net/DTD/sodipodi-0.dtd"
   xmlns:inkscape="http://www.inkscape.org/namespaces/inkscape"
   viewBox="0 0 16 16"
   id="svg2"
   version="1.1"
   inkscape:version="0.91 r13725"
   sodipodi:docname="indicator-keyboard-Mk-1.svg">
  <metadata
     id="metadata14">
    <rdf:RDF>
      <cc:Work
         rdf:about="">
        <dc:format>image/svg+xml</dc:format>
        <dc:type
           rdf:resource="http://purl.org/dc/dcmitype/StillImage" />
      </cc:Work>
    </rdf:RDF>
  </metadata>
  <defs
     id="defs12" />
  <sodipodi:namedview
     pagecolor="#ffffff"
     bordercolor="#666666"
     borderopacity="1"
     objecttolerance="10"
     gridtolerance="10"
     guidetolerance="10"
     inkscape:pageopacity="0"
     inkscape:pageshadow="2"
     inkscape:window-width="640"
     inkscape:window-height="480"
     id="namedview10"
     showgrid="false"
     inkscape:zoom="14.75"
     inkscape:cx="8"
     inkscape:cy="8"
     inkscape:window-x="65"
     inkscape:window-y="24"
     inkscape:window-maximized="0"
     inkscape:current-layer="svg2" />
  <path
     style="fill:#ececec;fill-opacity:1"
     d="M 1.5996094 0 C 0.71320937 2.9605947e-16 0 0.71320937 0 1.5996094 L 0 14.400391 C 2.9605947e-16 15.286791 0.71320937 16 1.5996094 16 L 14.400391 16 C 15.286791 16 16 15.286791 16 14.400391 L 16 1.5996094 C 16 0.71320937 15.286791 0 14.400391 0 L 1.5996094 0 z M 9.6679688 4.1113281 L 9.6679688 8.5390625 C 9.8179688 8.3950625 9.9858747 8.2309219 10.171875 8.0449219 C 10.357875 7.8589219 10.544469 7.6705156 10.730469 7.4785156 C 10.922469 7.2865156 11.101531 7.0999219 11.269531 6.9199219 C 11.437531 6.7399219 11.581172 6.5813594 11.701172 6.4433594 L 12.404297 6.4433594 C 12.266297 6.5873594 12.109547 6.7496875 11.935547 6.9296875 C 11.761547 7.1096875 11.578719 7.2980937 11.386719 7.4960938 C 11.200719 7.6880937 11.014125 7.8765 10.828125 8.0625 L 10.324219 8.5664062 C 10.510219 8.6924063 10.707969 8.8547344 10.917969 9.0527344 C 11.133969 9.2507344 11.344828 9.4671719 11.548828 9.7011719 C 11.758828 9.9291721 11.954766 10.166109 12.134766 10.412109 C 12.320766 10.652109 12.475563 10.879703 12.601562 11.095703 L 11.908203 11.095703 C 11.764203 10.855703 11.600063 10.622531 11.414062 10.394531 C 11.234063 10.160531 11.041891 9.9403283 10.837891 9.7363281 C 10.639891 9.5323281 10.438375 9.3476875 10.234375 9.1796875 C 10.036375 9.0116875 9.8479688 8.8698594 9.6679688 8.7558594 L 9.6679688 11.095703 L 9.0820312 11.095703 L 9.0820312 4.2207031 L 9.6679688 4.1113281 z M 1.6191406 4.859375 L 2.1601562 4.859375 C 2.3401562 5.159375 2.5323281 5.5063438 2.7363281 5.9023438 C 2.9403281 6.2923438 3.1398906 6.7009531 3.3378906 7.1269531 C 3.5418906 7.5469531 3.7378281 7.9649063 3.9238281 8.3789062 C 4.1158281 8.7869063 4.2837344 9.154375 4.4277344 9.484375 C 4.5717344 9.154375 4.735875 8.7869063 4.921875 8.3789062 C 5.113875 7.9649062 5.3098125 7.5469531 5.5078125 7.1269531 C 5.7118125 6.7009531 5.9151406 6.2923438 6.1191406 5.9023438 C 6.3231406 5.5063438 6.5153125 5.159375 6.6953125 4.859375 L 7.2089844 4.859375 C 7.3109844 5.807375 7.3949375 6.7998906 7.4609375 7.8378906 C 7.5329375 8.8758906 7.5963906 9.9617029 7.6503906 11.095703 L 7.0292969 11.095703 C 6.9932969 10.129703 6.9503437 9.2080312 6.9023438 8.3320312 C 6.8603438 7.4500313 6.8006562 6.6347656 6.7226562 5.8847656 C 6.6746562 5.9687656 6.6000469 6.1124063 6.4980469 6.3164062 C 6.3960469 6.5204063 6.2784844 6.7573437 6.1464844 7.0273438 C 6.0144844 7.2973438 5.8764219 7.5883906 5.7324219 7.9003906 C 5.5884219 8.2063906 5.4485469 8.5067812 5.3105469 8.8007812 C 5.1725469 9.0887812 5.0456406 9.3555625 4.9316406 9.6015625 C 4.8236406 9.8475625 4.7396875 10.045312 4.6796875 10.195312 L 4.1308594 10.195312 C 4.0708594 10.045312 3.9831406 9.8475625 3.8691406 9.6015625 C 3.7611406 9.3555625 3.638 9.0887813 3.5 8.8007812 C 3.362 8.5067812 3.222125 8.2063906 3.078125 7.9003906 C 2.934125 7.5883906 2.7960625 7.2973438 2.6640625 7.0273438 C 2.5320625 6.7573437 2.4145 6.5204063 2.3125 6.3164062 C 2.2105 6.1124063 2.1358906 5.9687656 2.0878906 5.8847656 C 2.0098906 6.6347656 1.9464375 7.4500312 1.8984375 8.3320312 C 1.8564375 9.2080313 1.81725 10.129703 1.78125 11.095703 L 1.1796875 11.095703 C 1.2336875 9.9617029 1.293375 8.8758906 1.359375 7.8378906 C 1.431375 6.7998906 1.5171406 5.807375 1.6191406 4.859375 z M 14.552734 8.8417969 L 14.820312 8.8417969 L 14.820312 12.896484 L 14.441406 12.896484 L 14.441406 9.421875 C 14.398506 9.468675 14.341684 9.5157063 14.271484 9.5664062 C 14.205184 9.6171063 14.128769 9.66805 14.042969 9.71875 C 13.957169 9.76555 13.867038 9.812575 13.773438 9.859375 C 13.679837 9.902275 13.587741 9.9375437 13.494141 9.9648438 L 13.382812 9.671875 C 13.616813 9.5899751 13.824512 9.4880813 14.007812 9.3632812 C 14.191112 9.2345813 14.373334 9.0601969 14.552734 8.8417969 z "
     id="path4" />
</svg>

<svg xmlns="http://www.w3.org/2000/svg" viewBox="0 0 16 16">
 <path d="m 1.6 0 c -0.886 0 -1.6 0.713 -1.6 1.6 l 0 12.801 c 0 0.886 0.713 1.6 1.6 1.6 l 12.801 0 c 0.886 0 1.6 -0.713 1.6 -1.6 l 0 -12.801 c 0 -0.886 -0.713 -1.6 -1.6 -1.6 l -12.801 0 z m 8.07 4.111 l 0 4.428 c 0.15 -0.144 0.318 -0.308 0.504 -0.494 c 0.186 -0.186 0.373 -0.374 0.559 -0.566 c 0.192 -0.192 0.371 -0.379 0.539 -0.559 c 0.168 -0.18 0.312 -0.339 0.432 -0.477 l 0.703 0 c -0.138 0.144 -0.295 0.306 -0.469 0.486 c -0.174 0.18 -0.357 0.368 -0.549 0.566 c -0.186 0.192 -0.373 0.38 -0.559 0.566 l -0.504 0.504 c 0.186 0.126 0.384 0.288 0.594 0.486 c 0.216 0.198 0.427 0.414 0.631 0.648 c 0.21 0.228 0.406 0.465 0.586 0.711 c 0.186 0.24 0.341 0.468 0.467 0.684 l -0.693 0 c -0.144 -0.24 -0.308 -0.473 -0.494 -0.701 c -0.18 -0.234 -0.372 -0.454 -0.576 -0.658 c -0.198 -0.204 -0.4 -0.389 -0.604 -0.557 c -0.198 -0.168 -0.386 -0.31 -0.566 -0.424 l 0 2.34 l -0.586 0 l 0 -6.875 l 0.586 -0.109 z m -8.05 0.748 l 0.541 0 c 0.18 0.3 0.372 0.647 0.576 1.043 c 0.204 0.39 0.404 0.799 0.602 1.225 c 0.204 0.42 0.4 0.838 0.586 1.252 c 0.192 0.408 0.36 0.775 0.504 1.105 c 0.144 -0.33 0.308 -0.697 0.494 -1.105 c 0.192 -0.414 0.388 -0.832 0.586 -1.252 c 0.204 -0.426 0.407 -0.835 0.611 -1.225 c 0.204 -0.396 0.396 -0.743 0.576 -1.043 l 0.514 0 c 0.102 0.948 0.186 1.941 0.252 2.979 c 0.072 1.038 0.135 2.124 0.189 3.258 l -0.621 0 c -0.036 -0.966 -0.079 -1.888 -0.127 -2.764 c -0.042 -0.882 -0.102 -1.697 -0.18 -2.447 c -0.048 0.084 -0.123 0.228 -0.225 0.432 c -0.102 0.204 -0.22 0.441 -0.352 0.711 c -0.132 0.27 -0.27 0.561 -0.414 0.873 c -0.144 0.306 -0.284 0.606 -0.422 0.9 c -0.138 0.288 -0.265 0.555 -0.379 0.801 c -0.108 0.246 -0.192 0.444 -0.252 0.594 l -0.549 0 c -0.06 -0.15 -0.148 -0.348 -0.262 -0.594 c -0.108 -0.246 -0.231 -0.513 -0.369 -0.801 c -0.138 -0.294 -0.278 -0.594 -0.422 -0.9 c -0.144 -0.312 -0.282 -0.603 -0.414 -0.873 c -0.132 -0.27 -0.25 -0.507 -0.352 -0.711 c -0.102 -0.204 -0.177 -0.348 -0.225 -0.432 c -0.078 0.75 -0.141 1.565 -0.189 2.447 c -0.042 0.876 -0.081 1.798 -0.117 2.764 l -0.602 0 c 0.054 -1.134 0.114 -2.22 0.18 -3.258 c 0.072 -1.038 0.158 -2.031 0.26 -2.979 z m 12.934 3.982 l 0.268 0 l 0 4.055 l -0.379 0 l 0 -3.475 c -0.043 0.047 -0.1 0.094 -0.17 0.145 c -0.066 0.051 -0.143 0.102 -0.229 0.152 c -0.086 0.047 -0.176 0.094 -0.27 0.141 c -0.094 0.043 -0.186 0.078 -0.279 0.105 l -0.111 -0.293 c 0.234 -0.082 0.442 -0.184 0.625 -0.309 c 0.183 -0.129 0.366 -0.303 0.545 -0.521 z" style="fill:#ececec;fill-opacity:1"/>
</svg>
